data/cards/self-care/yoga.svg

<svg xmlns="http://www.w3.org/2000/svg" width="512" height="512" fill="none"><path fill="#4E5660" d="M386.53 126.991c0 31.641 22.338 64.797 36.73 82.241 4.518 5.477 4.07 13.526-1.118 18.372-26.311 24.579-91.344 47.938-165.636 47.938S117.181 252.183 90.87 227.604c-5.188-4.847-5.636-12.896-1.118-18.372 14.392-17.444 36.73-50.6 36.73-82.241H386.53Z"/><path fill="#4E5660" d="M386.53 126.991c0 31.641 22.338 64.797 36.73 82.241 4.518 5.477 4.07 13.526-1.118 18.372-26.311 24.579-91.344 47.938-165.636 47.938S117.181 252.183 90.87 227.604c-5.188-4.847-5.636-12.896-1.118-18.372 14.392-17.444 36.73-50.6 36.73-82.241H386.53Z"/><path fill="#383C43" d="M119.963 223.295c-6.843 8.999-3.57 21.993 6.738 26.634 32.708 14.727 79.094 25.613 129.806 25.613 50.296 0 96.332-10.709 128.993-25.252 10.36-4.613 13.649-17.661 6.775-26.681-18.992-24.921-41.928-61.695-56.329-96.618H176.054c-14.342 34.777-37.146 71.389-56.091 96.304Z"/><path fill="#FFD4BE" d="M36.38 393.277C15.147 392.105-1.113 373.945.06 352.714c1.172-21.231 19.332-37.491 40.563-36.319 26.227 1.448 35.376-3.132 41.356-8.297 11.334-9.788 21.769-32.48 31.016-67.447 5.436-20.556 26.506-32.817 47.063-27.376 20.556 5.436 32.813 26.507 27.376 47.063-13.849 52.366-30.851 85.069-55.129 106.035-31.059 26.825-67.58 28.469-95.926 26.904Z"/><path fill="#3CB767" d="M160.059 213.275c-20.558-5.44-41.628 6.821-47.063 27.376-5.054 19.111-10.464 34.547-16.181 46.223l72.634 26.437c6.644-14.96 12.559-32.45 17.987-52.972 5.435-20.557-6.822-41.628-27.377-47.064Z"/><path fill="#FFD4BE" d="M475.621 393.277c21.231-1.172 37.491-19.332 36.319-40.563-1.172-21.231-19.332-37.491-40.563-36.319-26.227 1.448-35.376-3.132-41.356-8.297-11.334-9.788-21.769-32.48-31.016-67.447-5.436-20.556-26.506-32.817-47.063-27.376-20.556 5.436-32.813 26.507-27.376 47.063 13.849 52.366 30.851 85.069 55.129 106.035 31.059 26.825 67.579 28.469 95.926 26.904Z"/><path fill="#3CB767" d="M351.941 213.275c20.558-5.44 41.628 6.821 47.063 27.376 5.054 19.111 10.464 34.547 16.181 46.223l-72.634 26.437c-6.644-14.96-12.559-32.45-17.987-52.972-5.435-20.557 6.822-41.628 27.377-47.064Z"/><path fill="#6FCE91" d="M374.696 312.839c0-68.409-53.142-129.569-118.696-129.569s-118.696 61.16-118.696 129.569c0 68.409 53.142 111.302 118.696 111.302s118.696-42.893 118.696-111.302Z"/><path fill="#FFD4BE" d="M142.971 507.237c4.373 0 8.817-.75 13.164-2.332L382.2 422.624c19.98-7.272 30.283-29.365 23.01-49.345s-29.367-30.282-49.345-23.01L129.8 432.549c-19.98 7.272-30.283 29.365-23.011 49.345 5.691 15.633 20.457 25.343 36.182 25.343Z"/><path fill="#FFBF9E" d="M288.162 374.91 129.8 432.549a38.373 38.373 0 0 0-13.357 8.271 60.884 60.884 0 0 0 5.832 2.476l101.563 36.966L382.2 422.623a38.367 38.367 0 0 0 13.357-8.271 60.884 60.884 0 0 0-5.832-2.476L288.162 374.91Z"/><path fill="#F7EF87" d="m170.204 417.843 185.661-67.575c19.978-7.272 42.073 3.03 49.345 23.01 7.272 19.98-3.03 42.073-23.01 49.345l-185.66 67.575-26.336-72.355Z"/><path fill="#EFD176" d="M382.201 422.623a38.367 38.367 0 0 0 13.357-8.271 60.884 60.884 0 0 0-5.832-2.476L288.162 374.91l-117.957 42.933 17.998 49.449 35.636 12.97 158.362-57.639Z"/><path fill="#FFD4BE" d="M369.029 507.237a38.42 38.42 0 0 1-13.164-2.332L129.8 422.623c-19.98-7.272-30.283-29.365-23.01-49.345s29.367-30.282 49.345-23.01L382.2 432.549c19.98 7.272 30.283 29.365 23.011 49.345-5.69 15.633-20.456 25.343-36.182 25.343Z"/><path fill="#F7EF87" d="m341.796 417.843-185.661-67.575c-19.978-7.272-42.073 3.03-49.345 23.01-7.272 19.98 3.03 42.073 23.01 49.345l185.661 67.575 26.335-72.355Z"/><path fill="#FFD4BE" d="M135.071 165.695c25.845 0 46.797-17.328 46.797-38.704s-20.952-38.704-46.797-38.704c-25.845 0-46.797 17.328-46.797 38.704s20.952 38.704 46.797 38.704Z"/><path fill="#FFBF9E" d="M376.928 165.695c25.845 0 46.797-17.328 46.797-38.704s-20.952-38.704-46.797-38.704c-25.845 0-46.797 17.328-46.797 38.704s20.952 38.704 46.797 38.704Z"/><path fill="#FFD4BE" d="M256 249.218c71.53 0 129.516-54.723 129.516-122.227S327.53 4.764 256 4.764 126.484 59.487 126.484 126.99 184.47 249.218 256 249.218Z"/><path fill="#FFD4BE" d="M256 249.218c71.53 0 129.516-54.723 129.516-122.227S327.53 4.764 256 4.764 126.484 59.487 126.484 126.99 184.47 249.218 256 249.218Z"/><path fill="#FFBF9E" d="M320.209 233.161C157.958 234.838 147.906 93.628 189.456 22.115 151.732 43.48 126.483 82.45 126.483 126.99c0 67.504 57.986 122.227 129.516 122.227 23.366.001 45.284-5.841 64.21-16.056Z"/><path fill="#EDA1AB" d="M178.665 187.092c15.759 0 28.535-10.174 28.535-22.724 0-12.551-12.776-22.724-28.535-22.724-15.76 0-28.535 10.173-28.535 22.724 0 12.55 12.775 22.724 28.535 22.724Zm154.67 0c15.759 0 28.535-10.174 28.535-22.724 0-12.551-12.776-22.724-28.535-22.724-15.76 0-28.535 10.173-28.535 22.724 0 12.55 12.775 22.724 28.535 22.724Z"/><path fill="#4E5660" d="M195.295 148.907a27.023 27.023 0 0 1-20.377-9.28 7.5 7.5 0 0 1 11.309-9.855 12.029 12.029 0 0 0 9.068 4.135 12.03 12.03 0 0 0 9.069-4.135 7.501 7.501 0 0 1 11.309 9.855 27.03 27.03 0 0 1-20.378 9.28Zm121.41 0a27.027 27.027 0 0 1-20.378-9.28 7.5 7.5 0 0 1 11.309-9.855 12.03 12.03 0 0 0 9.069 4.135c3.473 0 6.778-1.507 9.068-4.135a7.5 7.5 0 0 1 11.309 9.855 27.026 27.026 0 0 1-20.377 9.28Zm-49.321 5.889c0-6.705-5.097-12.141-11.384-12.141s-11.383 5.436-11.383 12.141 5.097 12.141 11.383 12.141c6.287-.001 11.384-5.436 11.384-12.141ZM256 4.763c-61.834 0-113.538 40.896-126.422 95.588 35.379 1.88 125.043-1.661 163.425-41.011 27.855 45.982 62.467 50.627 90.433 45.734C372.492 48.029 319.601 4.763 256 4.763Z"/><path fill="#383C43" d="M168.702 100.049c.377-28.415 8.208-56.322 20.733-77.896-29.953 16.978-52.046 45.042-59.856 78.198 9.689.515 23.456.621 39.123-.302Z"/></svg>

<svg width="512" height="512" viewBox="0 0 512 512" fill="none" xmlns="http://www.w3.org/2000/svg">
<path d="M386.53 126.991C386.53 158.632 408.868 191.788 423.26 209.232C427.778 214.709 427.33 222.758 422.142 227.604C395.831 252.183 330.798 275.542 256.506 275.542C182.214 275.542 117.181 252.183 90.8699 227.604C85.6819 222.757 85.2339 214.708 89.7519 209.232C104.144 191.788 126.482 158.632 126.482 126.991H386.53Z" fill="#4E5660"/>
<path d="M386.53 126.991C386.53 158.632 408.868 191.788 423.26 209.232C427.778 214.709 427.33 222.758 422.142 227.604C395.831 252.183 330.798 275.542 256.506 275.542C182.214 275.542 117.181 252.183 90.8699 227.604C85.6819 222.757 85.2339 214.708 89.7519 209.232C104.144 191.788 126.482 158.632 126.482 126.991H386.53Z" fill="#4E5660"/>
<path d="M119.963 223.295C113.12 232.294 116.393 245.288 126.701 249.929C159.409 264.656 205.795 275.542 256.507 275.542C306.803 275.542 352.839 264.833 385.5 250.29C395.86 245.677 399.149 232.629 392.275 223.609C373.283 198.688 350.347 161.914 335.946 126.991H176.054C161.712 161.768 138.908 198.38 119.963 223.295Z" fill="#383C43"/>
<path d="M36.3791 393.277C15.1481 392.105 -1.11193 373.945 0.0600679 352.714C1.23207 331.483 19.3921 315.223 40.6231 316.395C66.8501 317.843 75.9991 313.263 81.9791 308.098C93.3131 298.31 103.748 275.618 112.995 240.651C118.431 220.095 139.501 207.834 160.058 213.275C180.614 218.711 192.871 239.782 187.434 260.338C173.585 312.704 156.583 345.407 132.305 366.373C101.246 393.198 64.7251 394.842 36.3791 393.277Z" fill="#FFD4BE"/>
<path d="M160.059 213.275C139.501 207.835 118.431 220.096 112.996 240.651C107.942 259.762 102.532 275.198 96.8149 286.874L169.449 313.311C176.093 298.351 182.008 280.861 187.436 260.339C192.871 239.782 180.614 218.711 160.059 213.275Z" fill="#3CB767"/>
<path d="M475.621 393.277C496.852 392.105 513.112 373.945 511.94 352.714C510.768 331.483 492.608 315.223 471.377 316.395C445.15 317.843 436.001 313.263 430.021 308.098C418.687 298.31 408.252 275.618 399.005 240.651C393.569 220.095 372.499 207.834 351.942 213.275C331.386 218.711 319.129 239.782 324.566 260.338C338.415 312.704 355.417 345.407 379.695 366.373C410.754 393.198 447.274 394.842 475.621 393.277Z" fill="#FFD4BE"/>
<path d="M351.941 213.275C372.499 207.835 393.569 220.096 399.004 240.651C404.058 259.762 409.468 275.198 415.185 286.874L342.551 313.311C335.907 298.351 329.992 280.861 324.564 260.339C319.129 239.782 331.386 218.711 351.941 213.275Z" fill="#3CB767"/>
<path d="M374.696 312.839C374.696 244.43 321.554 183.27 256 183.27C190.446 183.27 137.304 244.43 137.304 312.839C137.304 381.248 190.446 424.141 256 424.141C321.554 424.141 374.696 381.248 374.696 312.839Z" fill="#6FCE91"/>
<path d="M142.971 507.237C147.344 507.237 151.788 506.487 156.135 504.905L382.2 422.624C402.18 415.352 412.483 393.259 405.21 373.279C397.937 353.299 375.843 342.997 355.865 350.269L129.8 432.549C109.82 439.821 99.5171 461.914 106.789 481.894C112.48 497.527 127.246 507.237 142.971 507.237Z" fill="#FFD4BE"/>
<path d="M288.162 374.91L129.8 432.549C124.661 434.42 120.167 437.277 116.443 440.82C118.324 441.736 120.267 442.565 122.275 443.296L223.838 480.262L382.2 422.623C387.339 420.752 391.832 417.896 395.557 414.352C393.676 413.436 391.733 412.607 389.725 411.876L288.162 374.91Z" fill="#FFBF9E"/>
<path d="M170.204 417.843L355.865 350.268C375.843 342.996 397.938 353.298 405.21 373.278C412.482 393.258 402.18 415.351 382.2 422.623L196.54 490.198L170.204 417.843Z" fill="#F7EF87"/>
<path d="M382.201 422.623C387.34 420.752 391.833 417.896 395.558 414.352C393.677 413.436 391.734 412.607 389.726 411.876L288.162 374.91L170.205 417.843L188.203 467.292L223.839 480.262L382.201 422.623Z" fill="#EFD176"/>
<path d="M369.029 507.237C364.656 507.237 360.212 506.487 355.865 504.905L129.8 422.623C109.82 415.351 99.5171 393.258 106.79 373.278C114.063 353.298 136.157 342.996 156.135 350.268L382.2 432.549C402.18 439.821 412.483 461.914 405.211 481.894C399.521 497.527 384.755 507.237 369.029 507.237Z" fill="#FFD4BE"/>
<path d="M341.796 417.843L156.135 350.268C136.157 342.996 114.062 353.298 106.79 373.278C99.5182 393.258 109.82 415.351 129.8 422.623L315.461 490.198L341.796 417.843Z" fill="#F7EF87"/>
<path d="M135.071 165.695C160.916 165.695 181.868 148.367 181.868 126.991C181.868 105.615 160.916 88.2871 135.071 88.2871C109.226 88.2871 88.2739 105.615 88.2739 126.991C88.2739 148.367 109.226 165.695 135.071 165.695Z" fill="#FFD4BE"/>
<path d="M376.928 165.695C402.773 165.695 423.725 148.367 423.725 126.991C423.725 105.615 402.773 88.2871 376.928 88.2871C351.083 88.2871 330.131 105.615 330.131 126.991C330.131 148.367 351.083 165.695 376.928 165.695Z" fill="#FFBF9E"/>
<path d="M256 249.218C327.53 249.218 385.516 194.495 385.516 126.991C385.516 59.4866 327.53 4.76367 256 4.76367C184.47 4.76367 126.484 59.4866 126.484 126.991C126.484 194.495 184.47 249.218 256 249.218Z" fill="#FFD4BE"/>
<path d="M256 249.218C327.53 249.218 385.516 194.495 385.516 126.991C385.516 59.4866 327.53 4.76367 256 4.76367C184.47 4.76367 126.484 59.4866 126.484 126.991C126.484 194.495 184.47 249.218 256 249.218Z" fill="#FFD4BE"/>
<path d="M320.209 233.161C157.958 234.838 147.906 93.6282 189.456 22.1152C151.732 43.4792 126.483 82.4502 126.483 126.99C126.483 194.494 184.469 249.217 255.999 249.217C279.365 249.218 301.283 243.376 320.209 233.161Z" fill="#FFBF9E"/>
<path d="M178.665 187.092C194.424 187.092 207.2 176.918 207.2 164.368C207.2 151.817 194.424 141.644 178.665 141.644C162.905 141.644 150.13 151.817 150.13 164.368C150.13 176.918 162.905 187.092 178.665 187.092Z" fill="#EDA1AB"/>
<path d="M333.335 187.092C349.094 187.092 361.87 176.918 361.87 164.368C361.87 151.817 349.094 141.644 333.335 141.644C317.575 141.644 304.8 151.817 304.8 164.368C304.8 176.918 317.575 187.092 333.335 187.092Z" fill="#EDA1AB"/>
<path d="M195.295 148.907C187.484 148.907 180.057 145.525 174.918 139.627C172.197 136.504 172.522 131.767 175.645 129.045C178.767 126.324 183.505 126.649 186.227 129.772C188.517 132.4 191.822 133.907 195.295 133.907C198.768 133.907 202.074 132.4 204.364 129.772C207.085 126.649 211.823 126.325 214.946 129.045C218.069 131.767 218.394 136.504 215.673 139.627C210.532 145.525 203.105 148.907 195.295 148.907Z" fill="#4E5660"/>
<path d="M316.705 148.907C308.894 148.907 301.467 145.525 296.327 139.627C293.605 136.504 293.931 131.767 297.054 129.045C300.176 126.324 304.913 126.649 307.636 129.772C309.926 132.4 313.232 133.907 316.705 133.907C320.178 133.907 323.483 132.4 325.773 129.772C328.495 126.649 333.231 126.324 336.355 129.045C339.477 131.767 339.803 136.504 337.082 139.627C331.942 145.525 324.515 148.907 316.705 148.907Z" fill="#4E5660"/>
<path d="M267.384 154.796C267.384 148.091 262.287 142.655 256 142.655C249.713 142.655 244.617 148.091 244.617 154.796C244.617 161.501 249.714 166.937 256 166.937C262.287 166.936 267.384 161.501 267.384 154.796Z" fill="#4E5660"/>
<path d="M256 4.7627C194.166 4.7627 142.462 45.6587 129.578 100.351C164.957 102.231 254.621 98.6897 293.003 59.3397C320.858 105.322 355.47 109.967 383.436 105.074C372.492 48.0287 319.601 4.7627 256 4.7627Z" fill="#4E5660"/>
<path d="M168.702 100.049C169.079 71.6343 176.91 43.7273 189.435 22.1533C159.482 39.1313 137.389 67.1953 129.579 100.351C139.268 100.866 153.035 100.972 168.702 100.049Z" fill="#383C43"/>
</svg>
